images/rb.svg

<?xml version="1.0" encoding="UTF-8" standalone="no"?><!DOCTYPE svg PUBLIC "-//W3C//DTD SVG 1.1//EN" "http://www.w3.org/Graphics/SVG/1.1/DTD/svg11.dtd"><svg width="100%" height="100%" viewBox="0 0 57 57" version="1.1" xmlns="http://www.w3.org/2000/svg" xmlns:xlink="http://www.w3.org/1999/xlink" xml:space="preserve" xmlns:serif="http://www.serif.com/" style="fill-rule:evenodd;clip-rule:evenodd;"><circle id="cir_1" cx="28.5" cy="28.5" r="24.5" style="fill:#fafafa;"/><circle id="cir_2" cx="28.5" cy="28.5" r="22.05" style="fill:#fafafa;stroke:#f00;stroke-width:2px;"/><g><path d="M22.197,13.869c-0.237,0.356 -0.237,0.431 0.06,1.291c0.415,1.202 0.623,2.983 0.623,5.387l0,1.944l-1.069,0.178c-0.593,0.104 -2.003,0.312 -3.146,0.46c-1.127,0.149 -2.122,0.342 -2.211,0.431c-0.267,0.267 0.074,0.92 0.638,1.231c0.475,0.268 0.742,0.282 2.79,0.223c1.558,-0.059 2.256,-0.03 2.256,0.074c0,0.282 -1.172,2.345 -2.345,4.126c-0.92,1.395 -1.588,2.166 -3.636,4.185c-2.493,2.463 -2.819,2.938 -2.018,2.938c0.46,0 2.478,-0.905 3.502,-1.573c1.217,-0.801 3.087,-2.716 4.126,-4.274l0.89,-1.306l0.045,0.594c0.074,0.935 -0.52,7.375 -0.802,8.711c-0.148,0.697 -0.207,1.484 -0.163,1.959c0.089,0.875 0.727,2.419 1.173,2.819c0.252,0.238 0.326,0.238 0.682,0.045c0.238,-0.134 0.579,-0.594 0.846,-1.113l0.445,-0.891l0.045,-6.054c0.03,-3.325 0.089,-6.04 0.148,-6.04c0.06,0 0.445,0.415 0.846,0.905c1.647,2.003 2.953,2.33 3.339,0.846c0.267,-0.994 -0.119,-1.781 -1.202,-2.493c-0.475,-0.312 -1.38,-0.742 -1.988,-0.965l-1.128,-0.415l0.104,-1.277c0.059,-0.697 0.118,-1.306 0.148,-1.335c0.015,-0.03 0.816,-0.193 1.751,-0.386c2.553,-0.505 3.324,-0.994 2.686,-1.707c-0.312,-0.341 -1.543,-0.875 -2.092,-0.905c-0.238,-0.015 -0.817,0.089 -1.291,0.223c-0.475,0.148 -0.906,0.237 -0.95,0.193c-0.119,-0.134 0.267,-4.556 0.49,-5.402c0.178,-0.698 0.178,-0.861 -0.015,-1.232c-0.253,-0.504 -0.802,-0.905 -1.885,-1.41c-1.009,-0.475 -1.38,-0.475 -1.692,0.015Z" style="fill:#f00;fill-rule:nonzero;"/><path d="M38.492,18.974c-1.573,0.49 -4.868,1.187 -5.743,1.202c-0.327,0 -0.95,-0.03 -1.366,-0.089c-1.231,-0.178 -1.513,0.252 -0.935,1.38c0.549,1.039 0.638,2.197 0.535,7.005c-0.06,2.493 -0.164,5.09 -0.238,5.787c-0.312,2.864 -0.341,3.651 -0.148,4.245c0.504,1.513 1.395,2.226 1.959,1.543c0.148,-0.178 0.267,-0.49 0.267,-0.683c0,-0.193 0.089,-0.356 0.193,-0.356c0.089,0 1.35,-0.104 2.775,-0.222c1.424,-0.119 2.745,-0.223 2.923,-0.223c0.267,0 0.445,0.223 0.876,1.068c0.549,1.084 0.95,1.603 1.246,1.603c0.089,0 0.46,-0.208 0.817,-0.445c0.474,-0.327 0.786,-0.712 1.127,-1.425c0.594,-1.202 0.609,-1.721 0.149,-5.594c-0.297,-2.479 -0.327,-3.295 -0.267,-7.198c0.044,-3.101 0.118,-4.6 0.267,-5.031c0.297,-0.964 0.089,-1.32 -1.202,-2.151c-0.609,-0.386 -1.277,-0.728 -1.484,-0.772c-0.208,-0.045 -0.98,0.119 -1.751,0.356Zm1.113,2.404c0.089,0.104 0.193,1.009 0.252,2.018l0.089,1.826l-0.935,-0.104c-0.712,-0.059 -1.247,0 -2.404,0.282c-2.003,0.504 -3.191,0.742 -3.295,0.638c-0.044,-0.045 -0.029,-0.979 0.03,-2.078c0.089,-1.677 0.149,-2.018 0.356,-2.077c0.282,-0.089 2.553,-0.49 3.206,-0.579c1.083,-0.148 2.567,-0.104 2.701,0.074Zm0.341,7.539c0,0.979 -0.03,1.781 -0.074,1.781c-0.03,0 -0.386,-0.074 -0.787,-0.164c-0.638,-0.133 -1.039,-0.089 -2.953,0.297c-3.161,0.653 -2.864,0.787 -2.864,-1.231l0,-1.677l1.454,-0.089c0.787,-0.06 2.108,-0.223 2.924,-0.386c0.816,-0.163 1.662,-0.297 1.899,-0.297l0.401,-0.015l0,1.781Zm-0.045,4.778c-0.059,0.683 -0.103,1.544 -0.103,1.93l0,0.712l-0.846,0c-0.475,0 -1.588,0.089 -2.493,0.208c-0.891,0.118 -2.034,0.252 -2.523,0.296l-0.891,0.09l0.089,-3.71l0.772,-0.015c0.43,0 1.811,-0.164 3.072,-0.356c3.369,-0.505 3.027,-0.594 2.923,0.845Z" style="fill:#f00;fill-rule:nonzero;"/></g></svg>

<?xml version="1.0" encoding="UTF-8" standalone="no"?>
<!DOCTYPE svg PUBLIC "-//W3C//DTD SVG 1.1//EN" "http://www.w3.org/Graphics/SVG/1.1/DTD/svg11.dtd">
<svg width="100%" height="100%" viewBox="0 0 57 57" version="1.1" xmlns="http://www.w3.org/2000/svg" xmlns:xlink="http://www.w3.org/1999/xlink" xml:space="preserve" xmlns:serif="http://www.serif.com/" style="fill-rule:evenodd;clip-rule:evenodd;">
    <g id="cir_1" transform="matrix(1.0198,0,0,1.03035,-0.0791987,-0.121408)">
        <circle cx="28.5" cy="28.5" r="24.5" style="fill:rgb(119,119,119);"/>
    </g>
    <circle id="cir_11" serif:id="cir_1" cx="28.5" cy="28.5" r="24.5" style="fill:rgb(250,250,250);"/>
    <circle id="cir_2" cx="28.5" cy="28.5" r="22.05" style="fill:rgb(250,250,250);stroke:rgb(255,0,0);stroke-width:2px;"/>
    <g>
        <path d="M22.197,13.869C21.96,14.225 21.96,14.3 22.257,15.16C22.672,16.362 22.88,18.143 22.88,20.547L22.88,22.491L21.811,22.669C21.218,22.773 19.808,22.981 18.665,23.129C17.538,23.278 16.543,23.471 16.454,23.56C16.187,23.827 16.528,24.48 17.092,24.791C17.567,25.059 17.834,25.073 19.882,25.014C21.44,24.955 22.138,24.984 22.138,25.088C22.138,25.37 20.966,27.433 19.793,29.214C18.873,30.609 18.205,31.38 16.157,33.399C13.664,35.862 13.338,36.337 14.139,36.337C14.599,36.337 16.617,35.432 17.641,34.764C18.858,33.963 20.728,32.048 21.767,30.49L22.657,29.184L22.702,29.778C22.776,30.713 22.182,37.153 21.9,38.489C21.752,39.186 21.693,39.973 21.737,40.448C21.826,41.323 22.464,42.867 22.91,43.267C23.162,43.505 23.236,43.505 23.592,43.312C23.83,43.178 24.171,42.718 24.438,42.199L24.883,41.308L24.928,35.254C24.958,31.929 25.017,29.214 25.076,29.214C25.136,29.214 25.521,29.629 25.922,30.119C27.569,32.122 28.875,32.449 29.261,30.965C29.528,29.971 29.142,29.184 28.059,28.472C27.584,28.16 26.679,27.73 26.071,27.507L24.943,27.092L25.047,25.815C25.106,25.118 25.165,24.509 25.195,24.48C25.21,24.45 26.011,24.287 26.946,24.094C29.499,23.589 30.27,23.1 29.632,22.387C29.32,22.046 28.089,21.512 27.54,21.482C27.302,21.467 26.723,21.571 26.249,21.705C25.774,21.853 25.343,21.942 25.299,21.898C25.18,21.764 25.566,17.342 25.789,16.496C25.967,15.798 25.967,15.635 25.774,15.264C25.521,14.76 24.972,14.359 23.889,13.854C22.88,13.379 22.509,13.379 22.197,13.869Z" style="fill:rgb(255,0,0);fill-rule:nonzero;"/>
        <path d="M38.492,18.974C36.919,19.464 33.624,20.161 32.749,20.176C32.422,20.176 31.799,20.146 31.383,20.087C30.152,19.909 29.87,20.339 30.448,21.467C30.997,22.506 31.086,23.664 30.983,28.472C30.923,30.965 30.819,33.562 30.745,34.259C30.433,37.123 30.404,37.91 30.597,38.504C31.101,40.017 31.992,40.73 32.556,40.047C32.704,39.869 32.823,39.557 32.823,39.364C32.823,39.171 32.912,39.008 33.016,39.008C33.105,39.008 34.366,38.904 35.791,38.786C37.215,38.667 38.536,38.563 38.714,38.563C38.981,38.563 39.159,38.786 39.59,39.631C40.139,40.715 40.54,41.234 40.836,41.234C40.925,41.234 41.296,41.026 41.653,40.789C42.127,40.462 42.439,40.077 42.78,39.364C43.374,38.162 43.389,37.643 42.929,33.77C42.632,31.291 42.602,30.475 42.662,26.572C42.706,23.471 42.78,21.972 42.929,21.541C43.226,20.577 43.018,20.221 41.727,19.39C41.118,19.004 40.45,18.662 40.243,18.618C40.035,18.573 39.263,18.737 38.492,18.974ZM39.605,21.378C39.694,21.482 39.798,22.387 39.857,23.396L39.946,25.222L39.011,25.118C38.299,25.059 37.764,25.118 36.607,25.4C34.604,25.904 33.416,26.142 33.312,26.038C33.268,25.993 33.283,25.059 33.342,23.96C33.431,22.283 33.491,21.942 33.698,21.883C33.98,21.794 36.251,21.393 36.904,21.304C37.987,21.156 39.471,21.2 39.605,21.378ZM39.946,28.917C39.946,29.896 39.916,30.698 39.872,30.698C39.842,30.698 39.486,30.624 39.085,30.534C38.447,30.401 38.046,30.445 36.132,30.831C32.971,31.484 33.268,31.618 33.268,29.6L33.268,27.923L34.722,27.834C35.509,27.774 36.83,27.611 37.646,27.448C38.462,27.285 39.308,27.151 39.545,27.151L39.946,27.136L39.946,28.917ZM39.901,33.695C39.842,34.378 39.798,35.239 39.798,35.625L39.798,36.337L38.952,36.337C38.477,36.337 37.364,36.426 36.459,36.545C35.568,36.663 34.425,36.797 33.936,36.841L33.045,36.931L33.134,33.221L33.906,33.206C34.336,33.206 35.717,33.042 36.978,32.85C40.347,32.345 40.005,32.256 39.901,33.695Z" style="fill:rgb(255,0,0);fill-rule:nonzero;"/>
    </g>
</svg>
